X: 39
T:Jimmy Allen
% Nottingham Music Database
S:Kevin Briggs, via EF
M:4/4
L:1/4
K:G
P:A
G/2A/2|"G"BG GA|"G"B2 GA/2B/2|"Am"cA AB|"Am"c2 "D7"BA|"G"Gg "C"ge|\
"G"d2 "Em"B3/2c/2|"Am"dd "D7"c/2B/2A|"G"G3:|
P:B
B/2A/2|"G"Gg g3/2f/2|"C"ed cB|"A7"Aa a3/2g/2|"D7"fd ef|"G"g3/2a/2 "C"ge|\
"G"d2 "Em"B3/2c/2|"Am"dd "D7"c/2B/2A|"G"G3:|<end>
<start>
